X:3050
T:Delahunty's
T:The Wicklow Hornpipe
E:7
M:C
L:1/8
K:D
FG|ABAF DEFG|AGAB =c2 (3AB^c|dcde fdAF|DGGF G2FG|
ABAF DEFG|AGAB =c2 (3AB^c|dcde fdAG|F2D2 D2:|
de|fedf ecAF|Gggf g2fg|a2 ab agec|dcAF G2FG|
ABAF DEFG|AGAB =c2 (3AB^c|dcde fdAG|F2D2 D2:|
